X: 1
T: Rathlin Island
R: reel
M: 4/4
L: 1/8
K: Ador
|:e2 dB eAAB|e2 dB AGBd|e2 dB eAAB|
|1 dged BAA2:|2 dged BAAG||
|:A3B EGBG|AGAB deed|A2 AB GABd|
|1 egdB BAAG:|2 egdB BAA2||


Tune 874	Setting 14052

